X: 121
T:Waltz. JMT.116
M:3/8
L:1/8
Q:30
S:J.Moore,Tyneside,1841.(81b)
R:Waltz
O:England
A:Northumbria
Z:vmp.J.A
K:D
d| Af/e/d | Ag/f/e | Ae/d/c/e/ | dfa| Af/e/d | Ag/f/e | Ae/d/c/e/ | d2 :
|!
|:g | (f/a/)(a/g/)f | (g/b/)(b/a/)(g/f/) | (e/g/)(g/f/)e
 | (f/a/)(a/g/)(f/e/) | Af/e/d | Ag/f/e | Ae/d/c/e/ | d2:|!
|: d | (c/e/)(a/g/)(e/c/) | (d/f/)(b/a/)(f/d/) | (c/e/)(a/g/)(e/c/) | (d
/e/)(f/d/)(A/d/) | !
(c/e/)(a/g/)(e/c/) | (d/f/)(3f/b/a/) (f/d/) | (c/e/)(a/g/)e/c/ | d2:|
